Origami/24x24/apps/desktop-environment-kde.svg

<svg width="24" height="24" version="1.1" xmlns="http://www.w3.org/2000/svg">
 <rect transform="matrix(0,-1,-1,0,0,0)" x="-22" y="-22" width="20" height="20" rx="1" ry="1" style="fill:#2c9bff"/>
 <path d="m3 2c-0.554 0-1 0.446-1 1v0.5c0-0.554 0.446-1 1-1h18c0.554 0 1 0.446 1 1v-0.5c0-0.554-0.446-1-1-1z" style="fill:#ffffff;opacity:.2"/>
 <path d="m3 22.5c-0.554 0-1-0.446-1-1v-0.5c0 0.554 0.446 1 1 1h18c0.554 0 1-0.446 1-1v0.5c0 0.554-0.446 1-1 1z" style="opacity:.2"/>
 <path d="m13.015625 4.4746094-3.015625 0.5253906v10.386719l3-0.386719-0.015625-4.681641 3.539063 5.181641 3.476562-0.5-4-5.3632812 4.013672-4.5-3.519531-0.6484376-3.509766 4.5zm-6.3417969 2.6523437c-0.028972 0.00241-0.056303 0.015109-0.078125 0.037109l-1.0351562 1.046875c-0.04495 0.0453-0.052447 0.1159219-0.017578 0.1699219l1.25 1.919922c-0.2358096 0.418481-0.4139845 0.877322-0.529297 1.357422l-2.1582031 0.529297c-0.0599063 0.0147-0.1054688 0.068859-0.1054688 0.130859v1.363282c0 0.062 0.045563 0.116159 0.1054688 0.130859l2.1582031 0.529297c0.1153125 0.4801 0.2934874 0.938942 0.5292969 1.357422l-1.25 1.919922c-0.034868 0.054-0.027372 0.124623 0.017578 0.169921l1.0351562 1.046876c0.043643 0.044 0.1113563 0.04763 0.1640625 0.01562l1.9589845-1.201167c0.3843281 0.2239 0.9855094 0.404037 1.423828 0.523437l0.458985 2.216797c0.01275 0.064 0.06358 0.109375 0.126953 0.109375h1.542968c0.06338 0 0.114202-0.04537 0.126954-0.109375l0.458984-2.216797c0.438319-0.1194 1.039502-0.299537 1.423828-0.523437l1.958984 1.201171c0.05271 0.032 0.120422 0.02838 0.164063-0.01562l1.035156-1.046876c0.04495-0.0453 0.05245-0.115921 0.01758-0.169921l-1.041015-1.59961-0.128907 0.01953-0.730468-1.070312c-0.746065 1.563963-2.323843 2.560614-4.056641 2.5625-2.4852814 0-4.5-2.014719-4.5-4.5 0.001438-1.708129 0.9698469-3.26818 2.499998-4.0273468v-0.9824218c-0.2852384 0.095102-0.5655115 0.2024411-0.78125 0.328125l-1.9589844-1.2011719c-0.026353-0.016-0.056965-0.023891-0.085937-0.021484z" style="opacity:.2"/>
 <path d="m13.015625 3.9746094-3.015625 0.5253906v10.386719l3-0.386719-0.015625-4.6816406 3.539063 5.1816406 3.476562-0.5-4-5.3632812 4.013672-4.5-3.519531-0.6484376-3.509766 4.5zm-6.3417969 2.6523437c-0.028972 0.00241-0.056303 0.015109-0.078125 0.037109l-1.0351562 1.046875c-0.04495 0.0453-0.052447 0.1159219-0.017578 0.1699219l1.25 1.9199218c-0.2358096 0.4184812-0.4139845 0.8773222-0.529297 1.3574222l-2.1582031 0.529297c-0.0599063 0.0147-0.1054688 0.068859-0.1054688 0.130859v1.363282c0 0.062 0.045563 0.116159 0.1054688 0.130859l2.1582031 0.529297c0.1153125 0.4801 0.2934874 0.938942 0.5292969 1.357422l-1.25 1.919922c-0.034868 0.054-0.027372 0.124623 0.017578 0.169921l1.0351562 1.046876c0.043643 0.044 0.1113563 0.04763 0.1640625 0.01562l1.9589845-1.201167c0.3843281 0.2239 0.9855094 0.404037 1.423828 0.523437l0.458985 2.216797c0.01275 0.064004 0.063578 0.109375 0.126953 0.109375h1.542968c0.06338 0 0.114202-0.04537 0.126954-0.109375l0.458984-2.216797c0.438319-0.1194 1.039502-0.299537 1.423828-0.523437l1.958984 1.201171c0.05271 0.032 0.120422 0.02838 0.164063-0.01562l1.035156-1.046876c0.04495-0.0453 0.05245-0.115921 0.01758-0.169921l-1.041015-1.59961-0.128907 0.01953-0.730468-1.070312c-0.746065 1.563963-2.323843 2.560614-4.056641 2.5625-2.4852814 0-4.5-2.014719-4.5-4.5 0.001438-1.708129 0.9698469-3.26818 2.499998-4.0273468v-0.9824218c-0.2852384 0.095102-0.5655115 0.2024411-0.78125 0.328125l-1.9589844-1.2011719c-0.026353-0.016-0.056965-0.023891-0.085937-0.021484z" style="fill:#ffffff"/>
</svg>

<svg xmlns="http://www.w3.org/2000/svg" width="24" height="24" version="1.1">
 <rect style="fill:#2c9bff" width="20" height="20" x="-22" y="-22" rx="1" ry="1" transform="matrix(0,-1,-1,0,0,0)"/>
 <path style="opacity:0.2;fill:#ffffff" d="M 3,2 C 2.446,2 2,2.446 2,3 v 0.5 c 0,-0.554 0.446,-1 1,-1 h 18 c 0.554,0 1,0.446 1,1 V 3 C 22,2.446 21.554,2 21,2 Z"/>
 <path style="opacity:0.2" d="m 3,22.5 c -0.554,0 -1,-0.446 -1,-1 V 21 c 0,0.554 0.446,1 1,1 h 18 c 0.554,0 1,-0.446 1,-1 v 0.5 c 0,0.554 -0.446,1 -1,1 z"/>
 <path style="opacity:0.2" d="M 13.015625,4.4746094 10,5 V 15.386719 L 13,15 12.984375,10.318359 16.523438,15.5 20,15 16,9.6367188 l 4.013672,-4.5 -3.519531,-0.6484376 -3.509766,4.5 z M 6.6738281,7.1269531 c -0.028972,0.00241 -0.056303,0.015109 -0.078125,0.037109 l -1.0351562,1.046875 c -0.04495,0.0453 -0.052447,0.1159219 -0.017578,0.1699219 l 1.25,1.919922 c -0.2358096,0.418481 -0.4139845,0.877322 -0.529297,1.357422 L 4.1054688,12.1875 C 4.0455625,12.2022 4,12.256359 4,12.318359 V 13 13.681641 c 0,0.062 0.045563,0.116159 0.1054688,0.130859 l 2.1582031,0.529297 c 0.1153125,0.4801 0.2934874,0.938942 0.5292969,1.357422 l -1.25,1.919922 c -0.034868,0.054 -0.027372,0.124623 0.017578,0.169921 l 1.0351562,1.046876 c 0.043643,0.044 0.1113563,0.04763 0.1640625,0.01562 L 8.71875,17.650391 c 0.3843281,0.2239 0.9855094,0.404037 1.423828,0.523437 l 0.458985,2.216797 c 0.01275,0.064 0.06358,0.109375 0.126953,0.109375 H 11.5 12.271484 c 0.06338,0 0.114202,-0.04537 0.126954,-0.109375 l 0.458984,-2.216797 c 0.438319,-0.1194 1.039502,-0.299537 1.423828,-0.523437 l 1.958984,1.201171 c 0.05271,0.032 0.120422,0.02838 0.164063,-0.01562 l 1.035156,-1.046876 c 0.04495,-0.0453 0.05245,-0.115921 0.01758,-0.169921 l -1.041015,-1.59961 -0.128907,0.01953 -0.730468,-1.070312 c -0.746065,1.563963 -2.323843,2.560614 -4.056641,2.5625 -2.4852814,0 -4.5,-2.014719 -4.5,-4.5 C 7.00144,11.323124 7.9698489,9.763073 9.5,9.0039062 V 8.0214844 C 9.2147616,8.1165864 8.9344885,8.2239255 8.71875,8.3496094 L 6.7597656,7.1484375 c -0.026353,-0.016 -0.056965,-0.023891 -0.085937,-0.021484 z"/>
 <path style="fill:#ffffff" d="M 13.015625,3.9746094 10,4.5 V 14.886719 L 13,14.5 12.984375,9.8183594 16.523438,15 20,14.5 16,9.1367188 l 4.013672,-4.5 -3.519531,-0.6484376 -3.509766,4.5 z M 6.6738281,6.6269531 c -0.028972,0.00241 -0.056303,0.015109 -0.078125,0.037109 l -1.0351562,1.046875 c -0.04495,0.0453 -0.052447,0.1159219 -0.017578,0.1699219 l 1.25,1.9199218 C 6.5571593,10.219262 6.3789844,10.678103 6.2636719,11.158203 L 4.1054688,11.6875 C 4.0455625,11.7022 4,11.756359 4,11.818359 V 12.5 13.181641 c 0,0.062 0.045563,0.116159 0.1054688,0.130859 l 2.1582031,0.529297 c 0.1153125,0.4801 0.2934874,0.938942 0.5292969,1.357422 l -1.25,1.919922 c -0.034868,0.054 -0.027372,0.124623 0.017578,0.169921 l 1.0351562,1.046876 c 0.043643,0.044 0.1113563,0.04763 0.1640625,0.01562 L 8.71875,17.150391 c 0.3843281,0.2239 0.9855094,0.404037 1.423828,0.523437 l 0.458985,2.216797 C 10.614313,19.954629 10.665141,20 10.728516,20 H 11.5 12.271484 c 0.06338,0 0.114202,-0.04537 0.126954,-0.109375 l 0.458984,-2.216797 c 0.438319,-0.1194 1.039502,-0.299537 1.423828,-0.523437 l 1.958984,1.201171 c 0.05271,0.032 0.120422,0.02838 0.164063,-0.01562 l 1.035156,-1.046876 c 0.04495,-0.0453 0.05245,-0.115921 0.01758,-0.169921 l -1.041015,-1.59961 -0.128907,0.01953 -0.730468,-1.070312 c -0.746065,1.563963 -2.323843,2.560614 -4.056641,2.5625 -2.4852814,0 -4.5,-2.014719 -4.5,-4.5 C 7.00144,10.823124 7.9698489,9.263073 9.5,8.5039062 V 7.5214844 C 9.2147616,7.6165864 8.9344885,7.7239255 8.71875,7.8496094 L 6.7597656,6.6484375 c -0.026353,-0.016 -0.056965,-0.023891 -0.085937,-0.021484 z"/>
</svg>
